X: 35
T:The Boys of 
R:march
M:2/4
L:1/8
K:G
| G3A | GF ED | d3e | d2 c2 | B2 G2 | BA GF | E4 - | E2 D2 | G3A | GF ED | d3e |
d2 c2 | B2 A2 | GA B^c | d4 - | d2 d2 | e2 c2 | g2 fe | d3c | B2 d2 | c2 B2 | A2 G2 |
E4- | E2 D2 | G3A | GF ED | d3e | d2 c2 | B2 G2 | BA GF | G4 - | G2 | ]
